X: 60
P: Longways for as many as will
M: 6/4
L: 1/4
K: F
c |\
(AF)A c2f | (BG)d g2a | (bd)g (ec)f | f2e f2 :| a |\
(af)d b2a | (ge)c g2a | (fd)g (ec)d | (=BG)=B c2_B |\

